X: 5468
T: Bunch Of Rushes, The
R: hornpipe
M: 4/4
K: Gmajor
de|f2ef gfef|d2dc AGFA|cBcd ecdB|A2AB A2de|
f2ef gfef|d2dc AGFA|cBcd dcAG|E2D2 D2GA|
B2AB c2Bc|A2AG FGAB|cBcd ecdB|A2AB A2de|
f2ef gfef|d2dc AGFA|cBcd dcAG|E2D2 D2z2|

